svgs/thin/faucet.svg

<svg xmlns="http://www.w3.org/2000/svg" viewBox="0 0 512 512"><!--! Font Awesome Pro 6.3.0 by @fontawesome - https://fontawesome.com License - https://fontawesome.com/license (Commercial License) Copyright 2023 Fonticons, Inc. --><path d="M352 256h-38.54c-21.33-18.24-50.05-29.63-81.74-31.32C231.7 224.4 232 224.3 232 224V177.8l134.4 14.16c.5547 .0586 1.105 .0859 1.648 .0859C376.8 191.1 384 184.6 384 175.2V112.9c0-9.416-7.217-16.85-15.99-16.85c-.543 0-1.082 .0469-1.637 .1055L232 111.1V72C232 67.59 228.4 64 224 64S216 67.59 216 72v39.14L81.63 96.14C81.07 96.08 80.53 96.04 79.99 96.04C71.21 96.04 64 103.5 64 112.9v62.27c0 9.416 7.205 16.84 15.98 16.84c.543 0 1.094-.0273 1.648-.0859L216 177.8V224c0 .2637 .2559 .4199 .2813 .6758C184.6 226.4 155.9 237.8 134.5 256H32C14.33 256 0 270.3 0 288v64c0 17.67 14.33 32 32 32h76.78C129.4 421.7 173 448 224 448s94.63-26.27 115.2-64H352c17.58 0 32.14 14.33 32 31.91C383.9 433.7 398.3 448 416 448h64c17.11 0 31.85-13.51 31.99-30.62C512.7 328.4 440.8 256 352 256zM368 112L368.1 176L232 161.7V127.2L368 112zM80 175.2L79.93 112L216 127.2v34.38L80 175.2zM480 432h-64c-4.275 0-8.305-1.688-11.34-4.752c-3.037-3.062-4.689-7.105-4.654-11.38c.1016-12.64-4.775-24.57-13.74-33.6C377.1 373.1 364.1 368 352 368h-22.29l-4.549 8.338C306.7 410.2 267 432 224 432s-82.71-21.85-101.2-55.66L118.3 368H32c-8.822 0-16-7.178-16-16V288c0-8.822 7.178-16 16-16h108.5l4.49-3.842C166.2 250 194.3 240 224 240s57.77 10 78.99 28.16L307.5 272H352c38.7 0 75.02 15.13 102.3 42.61c27.24 27.47 42.06 63.92 41.73 102.6C495.9 425.2 488.6 432 480 432z"/></svg>

<svg xmlns="http://www.w3.org/2000/svg" viewBox="0 0 512 512"><!-- Font Awesome Pro 6.0.0-alpha2 by @fontawesome - https://fontawesome.com License - https://fontawesome.com/license (Commercial License) --><path d="M352 256H313.395C292.068 237.756 263.406 226.373 231.719 224.676C231.744 224.42 232 224.264 232 224V177.756L366.375 191.912C366.93 191.971 367.48 191.998 368.023 191.998C376.797 191.998 384 184.578 384 175.162V112.912C384 103.496 376.795 96.076 368.023 96.076C367.48 96.076 366.93 96.104 366.375 96.162L232 111.145V72C232 67.594 228.406 64 224 64S216 67.594 216 72V111.145L81.625 96.162C81.07 96.104 80.52 96.076 79.977 96.076C71.203 96.076 64 103.496 64 112.912V175.162C64 184.578 71.205 191.998 79.977 191.998C80.52 191.998 81.07 191.971 81.625 191.912L216 177.756V224C216 224.264 216.256 224.42 216.281 224.676C184.594 226.373 155.932 237.756 134.605 256H32C14.326 256 0 270.326 0 288V352C0 369.672 14.326 384 32 384H108.791C129.379 421.734 173.025 448 224 448S318.621 421.734 339.209 384H352C369.584 384 384.145 398.152 384.002 415.734C383.855 433.48 398.287 448 416 448H480C497.107 448 511.85 434.49 511.994 417.383C512.746 328.373 440.836 256 352 256ZM368.002 112.08L368 112.912L368.051 176L232 161.666V127.246L368.002 112.08ZM80 175.162L79.852 112.064L216 127.246V161.629L80 175.162ZM480 432H416C411.725 432 407.695 430.312 404.656 427.248C401.619 424.186 399.967 420.143 400.002 415.865C400.104 403.229 395.227 391.297 386.266 382.264C377.143 373.066 364.973 368 352 368H329.713L325.164 376.338C306.715 410.15 267.006 432 224 432S141.285 410.15 122.836 376.338L118.287 368H32C23.178 368 16 360.822 16 352V288C16 279.178 23.178 272 32 272H140.516L145.006 268.158C166.23 250.001 194.285 240 224 240S281.77 250.001 302.994 268.158L307.484 272H352C390.699 272 427.016 287.131 454.26 314.607C481.5 342.078 496.322 378.531 495.994 417.248C495.928 425.244 488.602 432 480 432Z"/></svg>
